_includes/svg/html5.svg

<?xml version="1.0" encoding="UTF-8" standalone="no"?>
<svg
   xmlns:dc="http://purl.org/dc/elements/1.1/"
   xmlns:cc="http://creativecommons.org/ns#"
   xmlns:rdf="http://www.w3.org/1999/02/22-rdf-syntax-ns#"
   xmlns:svg="http://www.w3.org/2000/svg"
   xmlns="http://www.w3.org/2000/svg"
   xmlns:sodipodi="http://sodipodi.sourceforge.net/DTD/sodipodi-0.dtd"
   xmlns:inkscape="http://www.inkscape.org/namespaces/inkscape"
   viewBox="0 0 362.734 411.38"
   id="svg3471"
   version="1.1"
   inkscape:version="0.48.5 r10040"
   width="100%"
   height="100%"
   sodipodi:docname="HTML5_logo_and_wordmark.svg">
  <metadata
     id="metadata3499">
    <rdf:RDF>
      <cc:Work
         rdf:about="">
        <dc:format>image/svg+xml</dc:format>
        <dc:type
           rdf:resource="http://purl.org/dc/dcmitype/StillImage" />
        <dc:title>HTML5 Logo</dc:title>
      </cc:Work>
    </rdf:RDF>
  </metadata>
  <defs
     id="defs3497" />
  <sodipodi:namedview
     pagecolor="#ffffff"
     bordercolor="#666666"
     borderopacity="1"
     objecttolerance="10"
     gridtolerance="10"
     guidetolerance="10"
     inkscape:pageopacity="0"
     inkscape:pageshadow="2"
     inkscape:window-width="1364"
     inkscape:window-height="743"
     id="namedview3495"
     showgrid="false"
     fit-margin-top="0"
     fit-margin-left="0"
     fit-margin-right="0"
     fit-margin-bottom="0"
     inkscape:zoom="0.98242188"
     inkscape:cx="181.367"
     inkscape:cy="256"
     inkscape:window-x="0"
     inkscape:window-y="0"
     inkscape:window-maximized="0"
     inkscape:current-layer="svg3471" />
  <title
     id="title3473">HTML5 Logo</title>
  <path
     style="fill:#ffffff"
     d="M 0 0 L 33 370.25 L 181.15625 411.375 L 329.6875 370.1875 L 362.71875 0 L 0 0 z M 67.5 75.6875 L 181.21875 75.6875 L 181.375 75.6875 L 294.96875 75.6875 L 293.875 87.875 L 291.8125 110.875 L 290.90625 121.09375 L 290.75 121.09375 L 181.375 121.09375 L 181.21875 121.09375 L 117.125 121.09375 L 121.28125 167.59375 L 181.375 167.59375 L 274.53125 167.59375 L 286.78125 167.59375 L 285.65625 179.78125 L 275 299.34375 L 274.3125 307 L 181.21875 332.8125 L 181.15625 332.84375 L 88.125 307 L 81.78125 235.71875 L 102.78125 235.71875 L 127.375 235.71875 L 130.59375 271.9375 L 181.15625 285.59375 L 181.21875 285.5625 L 231.84375 271.90625 L 237.125 213 L 181.375 213 L 79.75 213 L 68.59375 87.875 L 67.5 75.6875 z "
     transform="translate(-2.2418231e-6,0)"
     id="polygon3475" />
</svg>

<svg xmlns="http://www.w3.org/2000/svg" viewBox="0 0 362.734 411.38" width="362.73"><path d="m0 0l33 370.25 148.16 41.13 148.53-41.19 33.03-370.19h-362.72m67.5 75.69h113.72.156 113.59l-1.094 12.188-2.063 23-.906 10.219h-.156-109.37-.156-64.09l4.156 46.5h60.09 93.16 12.25l-1.125 12.188-10.656 119.56-.688 7.656-93.09 25.813-.063.031-93.03-25.844-6.344-71.28h21 24.594l3.219 36.22 50.563 13.656.063-.031 50.625-13.656 5.281-58.906h-55.75-101.62l-11.156-125.12-1.094-12.188" fill="#fff"/></svg>
